svg/060-white.svg

<svg height="288pt" stroke-linejoin="round" viewBox="0 0 432 288" width="432pt" xmlns="http://www.w3.org/2000/svg"><g stroke-linejoin="round"><path d="m0 288h432v-288h-432z" fill="none"/><path d="m163.855688 222.140866c12.540363 9.111109 27.061088 15.125793 42.37099 17.550645 15.309902 2.424853 30.978572 1.191704 45.720655-3.598288 14.742082-4.789991 28.143131-13.002162 39.103812-23.962841s19.172855-24.361726 23.962849-39.103808 6.023146-30.410751 3.598296-45.720654c-2.424849-15.309903-8.43953-29.830629-17.550637-42.370993-9.111108-12.540364-21.062499-22.747818-34.873762-29.785008-13.811262-7.03719-29.094117-10.706279-44.594859-10.706279v98.228615z" fill="#fff"/></g></svg>

<?xml version="1.0" encoding="utf-8" standalone="no"?>
<!DOCTYPE svg PUBLIC "-//W3C//DTD SVG 1.1//EN"
  "http://www.w3.org/Graphics/SVG/1.1/DTD/svg11.dtd">
<!-- Created with matplotlib (http://matplotlib.org/) -->
<svg height="288pt" version="1.1" viewBox="0 0 432 288" width="432pt" xmlns="http://www.w3.org/2000/svg" xmlns:xlink="http://www.w3.org/1999/xlink">
 <defs>
  <style type="text/css">
*{stroke-linecap:butt;stroke-linejoin:round;}
  </style>
 </defs>
 <g id="figure_1">
  <g id="patch_1">
   <path d="M 0 288 
L 432 288 
L 432 0 
L 0 0 
z
" style="fill:none;"/>
  </g>
  <g id="axes_1">
   <g id="patch_2">
    <path d="M 163.855688 222.140866 
C 176.396051 231.251975 190.916776 237.266659 206.226678 239.691511 
C 221.53658 242.116364 237.20525 240.883215 251.947333 236.093223 
C 266.689415 231.303232 280.090464 223.091061 291.051145 212.130382 
C 302.011826 201.169703 310.224 187.768656 315.013994 173.026574 
C 319.803988 158.284492 321.03714 142.615823 318.61229 127.30592 
C 316.187441 111.996017 310.17276 97.475291 301.061653 84.934927 
C 291.950545 72.394563 279.999154 62.187109 266.187891 55.149919 
C 252.376629 48.112729 237.093774 44.44364 221.593032 44.44364 
L 221.593032 142.672255 
L 163.855688 222.140866 
z
" style="fill:#ffffff;"/>
   </g>
   <g id="patch_3">
    <path d="M 221.59305 44.44364 
C 200.852426 44.443636 180.635234 51.012596 163.855714 63.203626 
C 147.076195 75.394656 134.581281 92.592424 128.172072 112.317928 
C 121.762864 132.043433 121.76286 153.301046 128.172062 173.026552 
C 134.581264 192.752058 147.076173 209.94983 163.855688 222.140866 
L 166.742556 218.167435 
C 150.802016 206.585952 138.931853 190.248068 132.843111 171.508837 
C 126.754369 152.769606 126.754372 132.574874 132.84312 113.835645 
C 138.931868 95.096415 150.802037 78.758536 166.74258 67.177058 
C 182.683124 55.595579 201.889456 49.355067 221.593049 49.355071 
z
" style="fill:#ffffff;"/>
   </g>
   <g id="matplotlib.axis_1"/>
   <g id="matplotlib.axis_2"/>
  </g>
 </g>
</svg>
